X:362
T:Wandering Drummer, The
C:Joe Buchanan's Scottish Tome - Page 210.2
I:210 2
C:Jimmy Shand
Z:Carl Allison
R:March
L:1/8
M:2/4
K:G
D | "G"GG/>A/ B b | "G"d/>c/B/>A/ GD | "C"EG "G"DG | "D7"BA AD |
"G"G/>F/G/>A/ Bg | "G"d/>c/B/>A/ GD | "Am"Ec B/>A/G/>F/ | "G"G2 G2 :|
B/c/ | "G"dg Bd | "G"b/>a/g/>f/ gd | "Am"ca/>c/ "G"Bg/>B/ | "Am"a"A7"A "D7"A/B/c |
"G"dg Bd | "G"b/>a/g/>f/ gB | "Am"cA "D7"dF | "G"G2 GB/c/ |
"G"dg Bd | "G"b/>a/g/>f/ gd | "Am"ca "G"Bg | "Am"a/>g/"A7"f/>e/ "D"d/>c/"D7"B/>A/ |
"G"G/>F/G/>A/ Bd | "G"b/>a/g/>f/ gd | "Am"ec' "D7"b/>a/g/>f/ | "G"g2 g2 z |]

